X: 1
T: Tam Lin   [Dm]
T: The Howling Wind
T: The Glasgow Reel
C: Davey Arthur
S: Elke Baker's version
Z: John Chambers <jc:trillian.mit.edu>
M: C|
L: 1/8
K: Dm
   B, \
| "Dm"~A,2 DA, FA,DA, | "Bb"~B,2 DB, FB,DB, | "C"~C2 EC GCEC | "Dm"FEDC "C"DCA,G, |
| "Dm"~A,2 DA, FA,DA, | "Bb"~B,2 DB, FB,DB, | "C"~C2 EC GCEC | "C"FEDC "Dm"D3 :|
|: (^c \
| "Dm"d)cAG F2D(^c | d)cAG F2D(=B | "C"~c2)Gc EcG(=B | ~c2)Gc EcG(^c |
| "Dm"d)cAG F2D(^c | d)cAG F2DC | "Bb"B,A,B,C DCDE | "C"FEDC "Dm"D3 |]
